icons/lactation_fill.svg

<svg width="48" height="48" viewBox="0 0 48 48" fill="none" xmlns="http://www.w3.org/2000/svg">
<path fill-rule="evenodd" clip-rule="evenodd" d="M33.0659 21.3681C32.5726 20.3968 31.5071 19.8567 30.4321 20.0331L17.1796 22.2076C16.0792 22.3881 15.1307 23.0823 14.6257 24.0765L10.271 32.6507C9.84611 33.4873 9.92546 34.4914 10.4765 35.2509L16.2068 43.1488C17.0176 44.2663 18.5809 44.5149 19.6984 43.7041C20.816 42.8933 21.0646 41.33 20.2538 40.2125L18.5651 37.885C18.6874 37.3044 19.0656 36.7838 19.6392 36.5015L22.8704 34.911L19.6391 33.3204C18.9554 32.9839 18.5223 32.2881 18.5223 31.526V27.5771C18.5223 26.4725 19.4178 25.5771 20.5223 25.5771C21.6269 25.5771 22.5223 26.4725 22.5223 27.5771V30.2813L28.2819 33.1164C28.6646 33.3044 28.9904 33.6157 29.1932 34.0278C29.5619 34.7767 29.419 35.6443 28.8994 36.2341L28.9204 36.2289L27.6674 37.9559C26.8565 39.0735 27.1052 40.6367 28.2227 41.4476C29.3403 42.2584 30.9035 42.0098 31.7144 40.8922L37.4446 32.9944C37.9957 32.2349 38.075 31.2308 37.6501 30.3942L33.0659 21.3681ZM34 28.4999C34 30.4329 32.433 31.9999 30.5 31.9999C28.567 31.9999 27 30.4329 27 28.4999C27 26.5669 28.567 24.9999 30.5 24.9999C32.433 24.9999 34 26.5669 34 28.4999Z" fill="black"/>
<path d="M31 11C31 14.866 27.866 18 24 18C20.134 18 17 14.866 17 11C17 7.13401 20.134 4 24 4C27.866 4 31 7.13401 31 11Z" fill="black"/>
</svg>

<svg
  xmlns="http://www.w3.org/2000/svg"
  width="24"
  height="24"
  viewBox="0 0 24 24"
  fill="none"
  stroke="currentColor"
  stroke-width="2"
  stroke-linecap="round"
  stroke-linejoin="round"
>
  <path
    fill-rule="evenodd"
    d="M33.066 21.368a2.5 2.5 0 0 0-2.634-1.335L17.18 22.208a3.5 3.5 0 0 0-2.554 1.869L10.27 32.65a2.5 2.5 0 0 0 .205 2.6l5.73 7.898a2.5 2.5 0 0 0 4.048-2.937l-1.689-2.327c.122-.58.5-1.101 1.074-1.383l3.231-1.591-3.23-1.59a2 2 0 0 1-1.118-1.795v-3.949a2 2 0 0 1 4 0v2.704l5.76 2.835a2 2 0 0 1 .617 3.118l.021-.005-1.253 1.727a2.5 2.5 0 1 0 4.047 2.936l5.73-7.898a2.5 2.5 0 0 0 .206-2.6zM34 28.5a3.5 3.5 0 1 1-7 0 3.5 3.5 0 0 1 7 0"
    clip-rule="evenodd"
  />
  <path d="M31 11a7 7 0 1 1-14 0 7 7 0 0 1 14 0" />
</svg>
